icons/line/trash.svg

<svg width="24" height="24" viewBox="0 0 24 24" fill="none" xmlns="http://www.w3.org/2000/svg">
<path d="M9 6V6C9 4.34315 10.3431 3 12 3V3C13.6569 3 15 4.34315 15 6V6M9 6H15M9 6H5M15 6H19M21 6H19M3 6H5M5 6V19C5 20.1046 5.89543 21 7 21H17C18.1046 21 19 20.1046 19 19V6M10 10V17M14 17V10" stroke="currentColor" stroke-width="2" stroke-linecap="round" stroke-linejoin="round"/>
</svg>

<svg width="24" height="24" fill="none" xmlns="http://www.w3.org/2000/svg"><path d="M9 6v0a3 3 0 013-3v0a3 3 0 013 3v0M9 6h6M9 6H5m10 0h4m2 0h-2M3 6h2m0 0v13a2 2 0 002 2h10a2 2 0 002-2V6m-9 4v7m4 0v-7" stroke="currentColor" stroke-width="2" stroke-linecap="round" stroke-linejoin="round"/></svg>
